X: 29656
T: Northside, The
R: jig
M: 6/8
K: Gmixolydian
|:DGG GAG|FDE FD=C|DGG ABc|dgg fdc|
B2G GAG|FDE F2d|cAG FGA|1 BGF G3:|2 BGF GBc|
dgg def|cAF FAc|dgg def|fdc de^f|
g^fg BcB|A2G FGA|_BAB cAF|1 GAG GBc:|2 GAG G3||

